src/topics/icons/v8-turbofan.svg

<svg height="214" preserveAspectRatio="xMidYMid" viewBox="0 0 256 214" width="256" xmlns="http://www.w3.org/2000/svg" xmlns:xlink="http://www.w3.org/1999/xlink"><radialGradient id="a" cx="12.742981%" cy="35.526012%" gradientTransform="matrix(1 0 0 .71368 0 .101718)" r="90.674946%"><stop offset="0" stop-color="#231f20" stop-opacity=".1"/><stop offset="1" stop-color="#231f20" stop-opacity="0"/></radialGradient><radialGradient id="b" cx="49.972973%" cy="49.932432%" r="50%"><stop offset=".4" stop-color="#231f20" stop-opacity="0"/><stop offset="1" stop-color="#231f20" stop-opacity=".04"/></radialGradient><radialGradient id="c" cx=".621806%" cy="5.277281%" gradientTransform="matrix(.833262 0 0 1 .001037 0)" r="99.699745%"><stop offset="0" stop-color="#fff" stop-opacity=".1"/><stop offset="1" stop-color="#fff" stop-opacity="0"/></radialGradient><path d="m102.18259 50.7651805v162.2963905h52.123992v-162.2963905zm50.819533 160.9375795h-49.406369v-159.5787685h49.406369z" fill="#424242"/><path d="m.48917198 10.218259 23.42590232 40.5469215h78.2675157v162.2963905h52.178344v-162.2963905h78.050106l23.425903-40.5469215z" fill="#424242"/><path d="m255.021656 11.6314225.815287-1.4131635h-255.34777102l.86963906 1.4131635z" fill="#fff" opacity=".2"/><path d="m45.2755839 50.7651805h-21.3605096l6.6853503 11.57707h9.6203822c1.4675159-4.0220806 3.0980892-7.881104 5.0547771-11.57707zm165.2314221 0c1.902336 3.695966 3.587262 7.6093418 5.000425 11.57707h10.218259l6.68535-11.57707z" fill="#afafaf"/><circle cx="127.891295" cy="93.323142" fill="#4285f4" r="92.942675"/><path d="m40.7643312 60.929087h-10.9791932l.8152866 1.4131635h9.6203822c.2174098-.4891719.3804671-.9783439.5435244-1.4131635zm174.2539278 0c.163057.489172.326115.9239916.489172 1.4131635h10.218259l.815287-1.4131635zm-87.126964 123.977919c-51.091295 0-92.562208-41.253503-92.942675-92.2904455v.6522293c0 51.3087052 41.6339702 92.9426752 92.942675 92.9426752 51.308705 0 92.942675-41.63397 92.942675-92.9426752v-.6522293c-.380467 51.0369425-41.85138 92.2904455-92.942675 92.2904455z" fill="#263238" opacity=".3"/><path d="m127.891295 1.73927813c51.091295 0 92.562208 41.25350317 92.942675 92.29044587v-.6522293c0-51.3087049-41.63397-92.94267517-92.942675-92.94267517-51.3087048 0-92.942675 41.63397027-92.942675 92.94267517v.6522293c.380467-51.0369427 41.85138-92.29044587 92.942675-92.29044587z" fill="#fff" opacity=".2"/><circle cx="127.891295" cy="94.355839" fill="#263238" opacity=".3" r="60.874735"/><path d="m220.236093 103.921868-40.275159-40.2751589-6.68535 3.8590234-26.197877-26.1978769-18.534183 48.3736731-8.968152 38.4815283 8.098513 27.067516 27.121869 27.121869c34.94862-10.598727 61.200849-41.144799 65.440339-78.430574z" fill="url(#a)"/><path d="m127.673885 34.5138004v60.3312102l26.741402-35.7095541c-1.467516-15.2730361-12.2293-24.6216561-26.741402-24.6216561zm-52.7762205 29.8938429 52.7762205 30.4373673-17.555838-40.9273885c-13.9685778-6.3592357-27.9371553-2.0653928-35.2203825 10.4900212zm.489172 60.6573247 52.2870485-30.2199574-44.1885347-5.2178344c-12.555414 8.9138004-15.381741 22.8823778-8.0985138 35.4377918z" fill="#e8e8e8"/><path d="m127.673885 155.230573v-60.3312099l-26.632696 34.6225049c1.413163 15.273036 12.066242 25.708705 26.632696 25.708705zm17.555839-19.458174c13.968577 6.413588 27.991507 1.087049 35.220382-11.468365l-52.721868-30.8721869z" fill="#d6d6d6"/><path d="m179.960934 64.6794055-52.287049 30.2199576 44.188535 5.2178339c12.501062-8.9681524 15.381741-22.9367299 8.098514-35.4377915z" fill="#d6d6d6"/><path d="m127.673885 93.8123142v-60.3312102c14.512102 0 25.165181 9.4029724 26.632697 24.730361zm0 0-52.2870485-30.2199575c7.3375796-12.555414 20.8169852-17.1210191 34.7312105-10.707431z" fill="#fff"/><path d="m127.673885 93.8123142-52.2870485 30.2199578c-7.2832272-12.555414-4.4025478-26.5239917 8.0985138-35.4377922z" fill="#fff"/><path d="m127.673885 93.8123142v60.3312098c-14.512102 0-25.16518-9.402972-26.632696-24.730361zm0 0 52.287049 30.2199578c-7.283227 12.555414-20.762633 17.121019-34.73121 10.707431z" fill="#e8e8e8"/><path d="m127.673885 93.8123142 52.287049-30.2199575c7.283227 12.555414 4.402548 26.5239915-8.098514 35.4377919z" fill="#e8e8e8"/><circle cx="127.619533" cy="93.05138" fill="#fff" r="20.110403"/><circle cx="127.619533" cy="93.05138" fill="url(#b)" r="20.110403"/><path d="m169.470913 10.218259c-12.501062-6.25053076-26.632696-9.83779191-41.579618-9.83779191-14.946921 0-29.0785561 3.53290871-41.5796177 9.83779191h-85.82250532l.38046709.7065818.43481953.7609341 22.6106157 39.133758 5.8700637 10.1639066.8152866 1.4131635h9.6203822c-3.4242038 9.6747346-5.3265393 20.1104034-5.3265393 30.9808917 0 42.3949043 28.426327 78.2131633 67.2339705 89.3554143v30.328662h52.123991v-30.600425c38.427177-11.414012 66.473036-46.960509 66.473036-89.1380037 0-10.8704884-1.847983-21.3061572-5.326539-30.9808918h10.218259l6.68535-11.57707 23.425903-40.5469215zm-125.5541402 43.2645435c-.0543524.0543525-.0543524.1087049-.1087049.2174098 0-.0543524.0543525-.1087049.1087049-.2174098zm-1.3044586 2.8806795c0 .0543524-.0543524.1087048-.0543524.1630573 0-.1087049 0-.1087049.0543524-.1630573zm169.2535028-2.8806795c.054353.0543525.054353.1087049.108705.2174098 0-.0543524-.054352-.1087049-.108705-.2174098zm1.304459 2.8806795c0 .0543524.054352.1087048.054352.1630573 0-.1087049 0-.1087049-.054352-.1630573z" fill="url(#c)"/></svg>

<?xml version="1.0" encoding="UTF-8"?>
<svg width="256px" height="214px" viewBox="0 0 256 214" version="1.1" xmlns="http://www.w3.org/2000/svg" xmlns:xlink="http://www.w3.org/1999/xlink" preserveAspectRatio="xMidYMid">
    <defs>
        <radialGradient cx="12.7429806%" cy="35.5260116%" fx="12.7429806%" fy="35.5260116%" r="90.674946%" gradientTransform="translate(0.127430,0.355260),scale(1.000000,0.713680),translate(-0.127430,-0.355260)" id="radialGradient-1">
            <stop stop-color="#231F20" stop-opacity="0.1" offset="0%"></stop>
            <stop stop-color="#231F20" stop-opacity="0" offset="100%"></stop>
        </radialGradient>
        <radialGradient cx="49.972973%" cy="49.9324324%" fx="49.972973%" fy="49.9324324%" r="50%" id="radialGradient-2">
            <stop stop-color="#231F20" stop-opacity="0" offset="40%"></stop>
            <stop stop-color="#231F20" stop-opacity="0.04" offset="100%"></stop>
        </radialGradient>
        <radialGradient cx="0.621805792%" cy="5.27728086%" fx="0.621805792%" fy="5.27728086%" r="99.6997445%" gradientTransform="translate(0.006218,0.052773),scale(0.833262,1.000000),translate(-0.006218,-0.052773)" id="radialGradient-3">
            <stop stop-color="#FFFFFF" stop-opacity="0.1" offset="0%"></stop>
            <stop stop-color="#FFFFFF" stop-opacity="0" offset="100%"></stop>
        </radialGradient>
    </defs>
		<g>
				<path d="M102.18259,50.7651805 L102.18259,213.061571 L154.306582,213.061571 L154.306582,50.7651805 L102.18259,50.7651805 Z M153.002123,211.70276 L103.595754,211.70276 L103.595754,52.1239915 L153.002123,52.1239915 L153.002123,211.70276 Z" fill="#424242"></path>
				<polygon fill="#424242" points="0.489171975 10.218259 23.9150743 50.7651805 102.18259 50.7651805 102.18259 213.061571 154.360934 213.061571 154.360934 50.7651805 232.41104 50.7651805 255.836943 10.218259"></polygon>
				<polygon fill="#FFFFFF" opacity="0.2" points="255.021656 11.6314225 255.836943 10.218259 0.489171975 10.218259 1.35881104 11.6314225"></polygon>
				<path d="M45.2755839,50.7651805 L23.9150743,50.7651805 L30.6004246,62.3422505 L40.2208068,62.3422505 C41.6883227,58.3201699 43.318896,54.4611465 45.2755839,50.7651805 Z M210.507006,50.7651805 C212.409342,54.4611465 214.094268,58.3745223 215.507431,62.3422505 L225.72569,62.3422505 L232.41104,50.7651805 L210.507006,50.7651805 Z" fill="#AFAFAF"></path>
				<circle fill="#4285F4" cx="127.891295" cy="93.3231423" r="92.9426752"></circle>
				<path d="M40.7643312,60.929087 L29.785138,60.929087 L30.6004246,62.3422505 L40.2208068,62.3422505 C40.4382166,61.8530786 40.6012739,61.3639066 40.7643312,60.929087 Z M215.018259,60.929087 C215.181316,61.418259 215.344374,61.8530786 215.507431,62.3422505 L225.72569,62.3422505 L226.540977,60.929087 L215.018259,60.929087 Z M127.891295,184.907006 C76.8,184.907006 35.329087,143.653503 34.94862,92.6165605 L34.94862,93.2687898 C34.94862,144.577495 76.5825902,186.211465 127.891295,186.211465 C179.2,186.211465 220.83397,144.577495 220.83397,93.2687898 L220.83397,92.6165605 C220.453503,143.653503 178.98259,184.907006 127.891295,184.907006 Z" fill="#263238" opacity="0.3"></path>
				<path d="M127.891295,1.73927813 C178.98259,1.73927813 220.453503,42.9927813 220.83397,94.029724 L220.83397,93.3774947 C220.83397,42.0687898 179.2,0.434819533 127.891295,0.434819533 C76.5825902,0.434819533 34.94862,42.0687898 34.94862,93.3774947 L34.94862,94.029724 C35.329087,42.9927813 76.8,1.73927813 127.891295,1.73927813 Z" fill="#FFFFFF" opacity="0.2"></path>
				<circle fill="#263238" opacity="0.3" cx="127.891295" cy="94.3558386" r="60.8747346"></circle>
				<path d="M220.236093,103.921868 L179.960934,63.6467091 L173.275584,67.5057325 L147.077707,41.3078556 L128.543524,89.6815287 L119.575372,128.163057 L127.673885,155.230573 L154.795754,182.352442 C189.744374,171.753715 215.996603,141.207643 220.236093,103.921868 Z" fill="url(#radialGradient-1)"></path>
				<path d="M127.673885,34.5138004 L127.673885,94.8450106 L154.415287,59.1354565 C152.947771,43.8624204 142.185987,34.5138004 127.673885,34.5138004 Z M74.8976645,64.4076433 L127.673885,94.8450106 L110.118047,53.9176221 C96.1494692,47.5583864 82.1808917,51.8522293 74.8976645,64.4076433 Z M75.3868365,125.064968 L127.673885,94.8450106 L83.4853503,89.6271762 C70.9299363,98.5409766 68.1036093,112.509554 75.3868365,125.064968 Z" fill="#E8E8E8"></path>
				<path d="M127.673885,155.230573 L127.673885,94.8993631 L101.041189,129.521868 C102.454352,144.794904 113.107431,155.230573 127.673885,155.230573 Z M145.229724,135.772399 C159.198301,142.185987 173.221231,136.859448 180.450106,124.304034 L127.728238,93.4318471 L145.229724,135.772399 Z" fill="#D6D6D6"></path>
				<path d="M179.960934,64.6794055 L127.673885,94.8993631 L171.86242,100.117197 C184.363482,91.1490446 187.244161,77.1804671 179.960934,64.6794055 Z" fill="#D6D6D6"></path>
				<path d="M127.673885,93.8123142 L127.673885,33.481104 C142.185987,33.481104 152.839066,42.8840764 154.306582,58.211465 L127.673885,93.8123142 Z M127.673885,93.8123142 L75.3868365,63.5923567 C82.7244161,51.0369427 96.2038217,46.4713376 110.118047,52.8849257 L127.673885,93.8123142 Z" fill="#FFFFFF"></path>
				<path d="M127.673885,93.8123142 L75.3868365,124.032272 C68.1036093,111.476858 70.9842887,97.5082803 83.4853503,88.5944798 L127.673885,93.8123142 Z" fill="#FFFFFF"></path>
				<path d="M127.673885,93.8123142 L127.673885,154.143524 C113.161783,154.143524 102.508705,144.740552 101.041189,129.413163 L127.673885,93.8123142 Z M127.673885,93.8123142 L179.960934,124.032272 C172.677707,136.587686 159.198301,141.153291 145.229724,134.739703 L127.673885,93.8123142 Z" fill="#E8E8E8"></path>
				<path d="M127.673885,93.8123142 L179.960934,63.5923567 C187.244161,76.1477707 184.363482,90.1163482 171.86242,99.0301486 L127.673885,93.8123142 Z" fill="#E8E8E8"></path>
				<circle fill="#FFFFFF" cx="127.619533" cy="93.05138" r="20.1104034"></circle>
				<circle fill="url(#radialGradient-2)" cx="127.619533" cy="93.05138" r="20.1104034"></circle>
				<path d="M169.470913,10.218259 C156.969851,3.96772824 142.838217,0.380467091 127.891295,0.380467091 C112.944374,0.380467091 98.8127389,3.9133758 86.3116773,10.218259 L0.489171975,10.218259 L0.869639066,10.9248408 L1.3044586,11.6857749 L23.9150743,50.8195329 L29.785138,60.9834395 L30.6004246,62.396603 L40.2208068,62.396603 C36.796603,72.0713376 34.8942675,82.5070064 34.8942675,93.3774947 C34.8942675,135.772399 63.3205945,171.590658 102.128238,182.732909 L102.128238,213.061571 L154.252229,213.061571 L154.252229,182.461146 C192.679406,171.047134 220.725265,135.500637 220.725265,93.3231423 C220.725265,82.4526539 218.877282,72.0169851 215.398726,62.3422505 L225.616985,62.3422505 L232.302335,50.7651805 L255.728238,10.218259 L169.470913,10.218259 Z M43.9167728,53.4828025 C43.8624204,53.537155 43.8624204,53.5915074 43.8080679,53.7002123 C43.8080679,53.6458599 43.8624204,53.5915074 43.9167728,53.4828025 Z M42.6123142,56.363482 C42.6123142,56.4178344 42.5579618,56.4721868 42.5579618,56.5265393 C42.5579618,56.4178344 42.5579618,56.4178344 42.6123142,56.363482 Z M211.865817,53.4828025 C211.92017,53.537155 211.92017,53.5915074 211.974522,53.7002123 C211.974522,53.6458599 211.92017,53.5915074 211.865817,53.4828025 Z M213.170276,56.363482 C213.170276,56.4178344 213.224628,56.4721868 213.224628,56.5265393 C213.224628,56.4178344 213.224628,56.4178344 213.170276,56.363482 Z" fill="url(#radialGradient-3)"></path>
		</g>
</svg>
